packages/Snapp/src/UploadIcon/index.svg

<?xml version="1.0" encoding="UTF-8"?>
<svg width="24px" height="24px" viewBox="0 0 24 24" version="1.1" xmlns="http://www.w3.org/2000/svg" xmlns:xlink="http://www.w3.org/1999/xlink">
    <title>Icons/24/Upload</title>
    <g id="Icons/24/Upload" stroke="none" stroke-width="1" fill="none" fill-rule="evenodd">
        <path d="M12.6128994,11.2097046 L12.7071068,11.2928932 L14.7071068,13.2928932 C15.0976311,13.6834175 15.0976311,14.3165825 14.7071068,14.7071068 C14.3466228,15.0675907 13.7793918,15.0953203 13.3871006,14.7902954 L13.2928932,14.7071068 L12.9990019,14.4136571 L13,20 C13,20.5522847 12.5522847,21 12,21 C11.4871642,21 11.0644928,20.6139598 11.0067277,20.1166211 L11,20 L10.9990019,14.4146571 L10.7071068,14.7071068 C10.3466228,15.0675907 9.77939176,15.0953203 9.38710056,14.7902954 L9.29289322,14.7071068 C8.93240926,14.3466228 8.90467972,13.7793918 9.20970461,13.3871006 L9.29289322,13.2928932 L11.2928932,11.2928932 C11.6533772,10.9324093 12.2206082,10.9046797 12.6128994,11.2097046 Z M16.5528919,8.04052072 L16.627,8.25 L16.9102675,8.25053919 C19.6662014,8.25053919 21.8864912,10.5518524 21.9957832,13.404756 L22.0000019,13.6252686 C22.0000019,15.2407743 21.3196439,16.7451863 20.1615976,17.761194 C19.7464441,18.1254275 19.1146261,18.0841486 18.7503927,17.6689951 C18.3861593,17.2538415 18.4274381,16.6220236 18.8425916,16.2577901 C19.5674775,15.6218141 20.0000019,14.6654149 20.0000019,13.6252686 C20.0000019,11.8117322 18.6958775,10.3541949 17.0840908,10.2558315 L16.9102675,10.2505392 L15.8796549,10.2505392 C15.4177539,10.2505392 15.0159529,9.93418479 14.9075725,9.48517898 C14.1788345,6.46611148 11.4426438,4.57058845 8.62442203,5.08404071 C5.78939085,5.60055549 3.7724734,8.38798219 4.02063145,11.5136096 C4.17113368,13.4092317 5.13291823,15.0818958 6.58958205,16.07694 C7.04562298,16.3884606 7.1627798,17.0106922 6.85125914,17.4667332 C6.53973848,17.9227741 5.91750687,18.0399309 5.46146595,17.7284103 C3.50314087,16.3906822 2.22508016,14.1679742 2.02690531,11.6719007 C1.69943706,7.54733693 4.39527415,3.82162754 8.2659427,3.11642984 C11.8294642,2.4671913 15.2577074,4.58231521 16.5528919,8.04052072 Z" id="Combined-Shape" fill="#404040"></path>
    </g>
</svg>

<svg viewBox="0 0 24 24" xmlns="http://www.w3.org/2000/svg" fill="currentColor" focusable="false">
  <path d="M12.613 11.21l.094.083 2 2a1 1 0 01-1.32 1.497l-.094-.083-.294-.293L13 20a1 1 0 01-1.993.117L11 20l-.001-5.585-.292.292a1 1 0 01-1.32.083l-.094-.083a1 1 0 01-.083-1.32l.083-.094 2-2a1 1 0 011.32-.083zm3.94-3.17l.074.21h.283c2.756 0 4.976 2.302 5.086 5.155l.004.22c0 1.616-.68 3.12-1.838 4.136a1 1 0 11-1.32-1.503c.725-.636 1.158-1.593 1.158-2.633 0-1.813-1.304-3.27-2.916-3.37l-.174-.004h-1.03a1 1 0 01-.972-.766c-.73-3.019-3.465-4.914-6.284-4.401-2.835.517-4.852 3.304-4.603 6.43.15 1.895 1.112 3.568 2.569 4.563a1 1 0 11-1.129 1.651c-1.958-1.337-3.236-3.56-3.434-6.056-.328-4.125 2.368-7.85 6.239-8.556 3.563-.649 6.992 1.466 8.287 4.925z" fill="none"/>
</svg>
